components/Icon/svg/list.svg

<svg width="24" height="24" viewBox="0 0 24 24" fill="none" xmlns="http://www.w3.org/2000/svg">
<path fill-rule="evenodd" clip-rule="evenodd" d="M1.875 8.25C0.84125 8.25 0 7.40875 0 6.375C0 5.34125 0.84125 4.5 1.875 4.5C2.90875 4.5 3.75 5.34125 3.75 6.375C3.75 7.40875 2.90875 8.25 1.875 8.25ZM1.875 5.75004C1.53 5.75004 1.25 6.03004 1.25 6.37504C1.25 6.72004 1.53 7.00004 1.875 7.00004C2.22 7.00004 2.5 6.72004 2.5 6.37504C2.5 6.03004 2.22 5.75004 1.875 5.75004ZM23.3906 6.75H5.10938C4.773 6.75 4.5 6.414 4.5 6C4.5 5.586 4.773 5.25 5.10938 5.25H23.3906C23.727 5.25 24 5.586 24 6C24 6.414 23.727 6.75 23.3906 6.75ZM5.10938 13.5H23.3906C23.727 13.5 24 13.164 24 12.75C24 12.336 23.727 12 23.3906 12H5.10938C4.773 12 4.5 12.336 4.5 12.75C4.5 13.164 4.773 13.5 5.10938 13.5ZM5.10938 19.5H23.3906C23.727 19.5 24 19.164 24 18.75C24 18.336 23.727 18 23.3906 18H5.10938C4.773 18 4.5 18.336 4.5 18.75C4.5 19.164 4.773 19.5 5.10938 19.5ZM0 12.375C0 13.4088 0.84125 14.25 1.875 14.25C2.90875 14.25 3.75 13.4088 3.75 12.375C3.75 11.3412 2.90875 10.5 1.875 10.5C0.84125 10.5 0 11.3412 0 12.375ZM1.25 12.375C1.25 12.03 1.53 11.75 1.875 11.75C2.22 11.75 2.5 12.03 2.5 12.375C2.5 12.72 2.22 13 1.875 13C1.53 13 1.25 12.72 1.25 12.375ZM1.875 20.25C0.84125 20.25 0 19.4088 0 18.375C0 17.3413 0.84125 16.5 1.875 16.5C2.90875 16.5 3.75 17.3413 3.75 18.375C3.75 19.4088 2.90875 20.25 1.875 20.25ZM1.875 17.75C1.53 17.75 1.25 18.03 1.25 18.375C1.25 18.72 1.53 19 1.875 19C2.22 19 2.5 18.72 2.5 18.375C2.5 18.03 2.22 17.75 1.875 17.75Z" fill="currentColor"/>
</svg>

<svg xmlns="http://www.w3.org/2000/svg" width="24" height="24" viewBox="0 0 24 24">
  <path fill="currentColor" fill-rule="evenodd" d="M1.875 8.25A1.877 1.877 0 0 1 0 6.375C0 5.341.841 4.5 1.875 4.5s1.875.841 1.875 1.875A1.877 1.877 0 0 1 1.875 8.25Zm0-2.5a.625.625 0 1 0 0 1.25.625.625 0 0 0 0-1.25Zm21.516 1H5.109c-.336 0-.609-.336-.609-.75s.273-.75.61-.75h18.28c.337 0 .61.336.61.75s-.273.75-.61.75ZM5.109 13.5h18.282c.336 0 .609-.336.609-.75s-.273-.75-.61-.75H5.11c-.337 0-.61.336-.61.75s.273.75.61.75Zm0 6h18.282c.336 0 .609-.336.609-.75s-.273-.75-.61-.75H5.11c-.337 0-.61.336-.61.75s.273.75.61.75ZM0 12.375c0 1.034.841 1.875 1.875 1.875a1.877 1.877 0 0 0 1.875-1.875A1.877 1.877 0 0 0 1.875 10.5 1.877 1.877 0 0 0 0 12.375Zm1.25 0a.625.625 0 1 1 1.25 0 .625.625 0 0 1-1.25 0Zm.625 7.875A1.877 1.877 0 0 1 0 18.375C0 17.341.841 16.5 1.875 16.5s1.875.841 1.875 1.875a1.877 1.877 0 0 1-1.875 1.875Zm0-2.5a.625.625 0 1 0 0 1.25.625.625 0 0 0 0-1.25Z" />
</svg>
